X:1
T: Painter's Polka
C: R-65
C: Scandinavian
M: C|
Z:
R: polka
K: D
"D"A2AB AGFE| E2D2 DFA2| "A7"Acec Acec| "D"Adfd Adfd|
"D"A2AB AGFE| E2D2 DFA2| "A7"Acec Acec| "D"d2f2 d4 :|
|:\
"G"[G,2G2] g2 gfg2| "D"A2f2 fed2| "A7"c2ec Acec| "D" d2f2 fed2|
"G"[G,2G2] g2 gfg2| "D"A2f2 fed2| "A7"Acec Acec| "D" d2f2 d4:|
\
P: Second fiddle
M: C|
f2fg fedc| d2A2 F2D2| G2E2 C2B,2| DFAF D2[F2d2]|
f2fg fedc| d2A2 F2D2| G2A,2 AGFE| D2[F2A2] [F4A4] :|
|:\
G2B2 BAG2| F2dA F2D2| E2GE CA,CE| DFAd A2F2|
G2B2 BAG2| F2AF D2F2| G2GE CA,CE| D2[A,2F2] [A,4F4] :|
%
